symbols/web/assignment_turned_in/materialsymbolssharp/assignment_turned_in_grad200fill1_24px.svg

<svg xmlns="http://www.w3.org/2000/svg" height="24" width="24"><path d="m10.6 16.4 7.6-7.6-1.85-1.85-5.75 5.75-2.9-2.9-1.85 1.85Zm-8.4 5.425V2.275h6.25Q9.025 1.35 9.963.787 10.9.225 12 .225q1.1 0 2.038.562.937.563 1.512 1.488h6.25v19.55Zm9.8-17.8q.325 0 .538-.213.212-.212.212-.537 0-.325-.212-.538-.213-.212-.538-.212-.325 0-.537.212-.213.213-.213.538 0 .325.213.537.212.213.537.213Z"/></svg>

<svg xmlns="http://www.w3.org/2000/svg" height="24" width="24"><path d="M10.6 16.4 18.2 8.8 16.35 6.95 10.6 12.7 7.7 9.8 5.85 11.65ZM2.2 21.825V2.275H8.45Q9.025 1.35 9.963 0.787Q10.9 0.225 12 0.225Q13.1 0.225 14.038 0.787Q14.975 1.35 15.55 2.275H21.8V21.825ZM12 4.025Q12.325 4.025 12.538 3.812Q12.75 3.6 12.75 3.275Q12.75 2.95 12.538 2.737Q12.325 2.525 12 2.525Q11.675 2.525 11.463 2.737Q11.25 2.95 11.25 3.275Q11.25 3.6 11.463 3.812Q11.675 4.025 12 4.025Z"/></svg>
